packages/icon-set-material/svg/outline/nest-secure-alarm.svg

<svg xmlns="http://www.w3.org/2000/svg" viewBox="0 0 24 24"><path d="M12 12.875q.375 0 .625-.25t.25-.625q0-.375-.25-.625t-.625-.25q-.375 0-.625.25t-.25.625q0 .375.25.625t.625.25Zm3 0q.375 0 .625-.25t.25-.625q0-.375-.25-.625t-.625-.25q-.375 0-.625.25t-.25.625q0 .375.25.625t.625.25Zm-6 0q.375 0 .625-.25t.25-.625q0-.375-.25-.625T9 11.125q-.375 0-.625.25t-.25.625q0 .375.25.625t.625.25Zm3 3q.375 0 .625-.25t.25-.625q0-.375-.25-.625t-.625-.25q-.375 0-.625.25t-.25.625q0 .375.25.625t.625.25Zm3 0q.375 0 .625-.25t.25-.625q0-.375-.25-.625t-.625-.25q-.375 0-.625.25t-.25.625q0 .375.25.625t.625.25Zm-6 0q.375 0 .625-.25t.25-.625q0-.375-.25-.625T9 14.125q-.375 0-.625.25t-.25.625q0 .375.25.625t.625.25Zm3-6q.375 0 .625-.25t.25-.625q0-.375-.25-.625T12 8.125q-.375 0-.625.25t-.25.625q0 .375.25.625t.625.25Zm3 0q.375 0 .625-.25t.25-.625q0-.375-.25-.625T15 8.125q-.375 0-.625.25t-.25.625q0 .375.25.625t.625.25Zm-6 0q.375 0 .625-.25T9.875 9q0-.375-.25-.625T9 8.125q-.375 0-.625.25T8.125 9q0 .375.25.625t.625.25ZM12 21.5q-1.975 0-3.712-.75Q6.55 20 5.275 18.725T3.25 15.712Q2.5 13.975 2.5 12t.75-3.713Q4 6.55 5.275 5.275T8.288 3.25Q10.025 2.5 12 2.5t3.713.75q1.737.75 3.012 2.025t2.025 3.012q.75 1.738.75 3.713t-.75 3.712q-.75 1.738-2.025 3.013t-3.012 2.025q-1.738.75-3.713.75Zm0-1.5q3.325 0 5.663-2.337Q20 15.325 20 12t-2.337-5.663Q15.325 4 12 4T6.338 6.337Q4 8.675 4 12t2.338 5.663Q8.675 20 12 20Zm0-8Z"/></svg>

<svg xmlns="http://www.w3.org/2000/svg" viewBox="0 0 24 24"><path d="M12 13q.425 0 .713-.288Q13 12.425 13 12t-.287-.713Q12.425 11 12 11t-.712.287Q11 11.575 11 12t.288.712Q11.575 13 12 13Zm3 0q.425 0 .713-.288Q16 12.425 16 12t-.287-.713Q15.425 11 15 11t-.712.287Q14 11.575 14 12t.288.712Q14.575 13 15 13Zm-6 0q.425 0 .713-.288Q10 12.425 10 12t-.287-.713Q9.425 11 9 11t-.712.287Q8 11.575 8 12t.288.712Q8.575 13 9 13Zm3 3q.425 0 .713-.288Q13 15.425 13 15t-.287-.713Q12.425 14 12 14t-.712.287Q11 14.575 11 15t.288.712Q11.575 16 12 16Zm3 0q.425 0 .713-.288Q16 15.425 16 15t-.287-.713Q15.425 14 15 14t-.712.287Q14 14.575 14 15t.288.712Q14.575 16 15 16Zm-6 0q.425 0 .713-.288Q10 15.425 10 15t-.287-.713Q9.425 14 9 14t-.712.287Q8 14.575 8 15t.288.712Q8.575 16 9 16Zm3-6q.425 0 .713-.288Q13 9.425 13 9t-.287-.713Q12.425 8 12 8t-.712.287Q11 8.575 11 9t.288.712Q11.575 10 12 10Zm3 0q.425 0 .713-.288Q16 9.425 16 9t-.287-.713Q15.425 8 15 8t-.712.287Q14 8.575 14 9t.288.712Q14.575 10 15 10Zm-6 0q.425 0 .713-.288Q10 9.425 10 9t-.287-.713Q9.425 8 9 8t-.712.287Q8 8.575 8 9t.288.712Q8.575 10 9 10Zm3 12q-2.075 0-3.9-.788-1.825-.787-3.175-2.137-1.35-1.35-2.137-3.175Q2 14.075 2 12t.788-3.9q.787-1.825 2.137-3.175 1.35-1.35 3.175-2.138Q9.925 2 12 2t3.9.787q1.825.788 3.175 2.138 1.35 1.35 2.137 3.175Q22 9.925 22 12t-.788 3.9q-.787 1.825-2.137 3.175-1.35 1.35-3.175 2.137Q14.075 22 12 22Zm0-2q3.325 0 5.663-2.337Q20 15.325 20 12t-2.337-5.663Q15.325 4 12 4T6.338 6.337Q4 8.675 4 12t2.338 5.663Q8.675 20 12 20Zm0-8Z"/></svg>
